X:90
T:The Backwards Polka 
R:polka
C: 1999, 2010 L.E. McCullough 
M:2/4
L:1/8
K:D
FG|:~A3 F/G/|Af ed|~B3 E/F/|GB ef|~g3e|(3fed ad|(3Bcd ec|1 dB AG:|2 d3B|]
|:Ad fd|FA df|gf ed|ed (3Bcd|~e3f|gb ag|(3fed (3cBA|1 dedB:|2 d2FG|]

